force-app/main/default/staticresources/nksSurveyEmojis/emoji5.svg

<svg width="86" height="86" viewBox="0 0 86 86" fill="none" xmlns="http://www.w3.org/2000/svg">
<g clip-path="url(#clip0_10792_393)">
<path d="M42.84 85.68C66.4999 85.68 85.68 66.4999 85.68 42.84C85.68 19.1801 66.4999 0 42.84 0C19.1801 0 0 19.1801 0 42.84C0 66.4999 19.1801 85.68 42.84 85.68Z" fill="#F9DA57"/>
<path d="M0 42.84C0 52.44 3.16 61.29 8.48 68.43C14.68 71.92 21.84 73.93 29.47 73.93C53.13 73.93 72.31 54.75 72.31 31.09C72.31 21.49 69.15 12.64 63.83 5.5C57.63 2.01 50.47 0 42.84 0C19.18 0 0 19.18 0 42.84Z" fill="#FBE981"/>
<path d="M5.8 47.1898C5.8 24.8698 23.89 6.77977 46.21 6.77977C60.05 6.77977 72.26 13.7398 79.55 24.3498C72.76 11.3798 59.15 2.50977 43.45 2.50977C20.98 2.50977 2.75 20.6798 2.75 43.0898C2.75 53.0798 6.38 62.2198 12.38 69.2898C8.22 62.9398 5.79 55.3498 5.79 47.1898H5.8Z" fill="#FCF0CA"/>
<path d="M24.9909 51.9902C24.9709 52.2802 24.9609 52.5602 24.9609 52.8602C24.9609 61.4402 32.9609 68.4002 42.8309 68.4002C52.7009 68.4002 60.7009 61.4402 60.7009 52.8602C60.7009 52.5702 60.6909 52.2802 60.6709 51.9902H24.9909Z" fill="#2C2C2C"/>
<path d="M42.8406 60.6895C37.9806 60.6895 33.5506 61.8595 30.1406 63.7895C33.3806 66.6395 37.8706 68.3995 42.8406 68.3995C47.8106 68.3995 52.3006 66.6395 55.5406 63.7895C52.1306 61.8595 47.6906 60.6895 42.8406 60.6895Z" fill="#ED2324"/>
<path d="M24.1281 47.1794L22.7381 45.9294C20.3481 43.7394 18.3781 41.8494 16.8181 40.2594C15.2581 38.6694 14.0181 37.2494 13.0881 35.9894C12.1581 34.7394 11.5181 33.5994 11.1381 32.5894C10.7581 31.5794 10.5781 30.5494 10.5781 29.5094C10.5781 27.4694 11.2581 25.7694 12.6281 24.4094C13.9981 23.0494 15.6781 22.3594 17.6881 22.3594C18.9781 22.3594 20.1681 22.6594 21.2581 23.2694C22.3481 23.8794 23.3081 24.7594 24.1181 25.9094C25.0681 24.6894 26.0681 23.7894 27.1281 23.2194C28.1881 22.6494 29.3281 22.3594 30.5481 22.3594C32.5581 22.3594 34.2481 23.0394 35.6081 24.4094C36.9781 25.7694 37.6581 27.4694 37.6581 29.5094C37.6581 30.5494 37.4681 31.5794 37.0981 32.5894C36.7281 33.6094 36.0781 34.7394 35.1481 35.9894C34.2181 37.2394 32.9781 38.6594 31.4181 40.2594C29.8581 41.8494 27.8881 43.7394 25.4981 45.9294L24.1081 47.1794H24.1281Z" fill="#ED2324"/>
<path d="M61.55 47.1794L60.16 45.9294C57.77 43.7394 55.8 41.8494 54.24 40.2594C52.68 38.6694 51.44 37.2494 50.51 35.9894C49.58 34.7394 48.94 33.5994 48.56 32.5894C48.19 31.5694 48 30.5494 48 29.5094C48 27.4694 48.68 25.7694 50.05 24.4094C51.42 23.0494 53.1 22.3594 55.11 22.3594C56.4 22.3594 57.59 22.6594 58.68 23.2694C59.77 23.8794 60.73 24.7594 61.54 25.9094C62.49 24.6894 63.49 23.7894 64.55 23.2194C65.61 22.6494 66.75 22.3594 67.97 22.3594C69.98 22.3594 71.67 23.0394 73.03 24.4094C74.4 25.7694 75.08 27.4694 75.08 29.5094C75.08 30.5494 74.89 31.5794 74.52 32.5894C74.15 33.5994 73.5 34.7394 72.57 35.9894C71.64 37.2394 70.4 38.6594 68.84 40.2594C67.28 41.8494 65.31 43.7394 62.92 45.9294L61.53 47.1794H61.55Z" fill="#ED2324"/>
</g>
<defs>
<clipPath id="clip0_10792_393">
<rect width="85.68" height="85.68" fill="white"/>
</clipPath>
</defs>
</svg>

<?xml version="1.0" encoding="UTF-8"?>
<svg id="emoji5" xmlns="http://www.w3.org/2000/svg" viewBox="0 0 85.68 85.68">
    <defs>
        <style>
            .cls-1{fill:#2c2c2c;}.cls-1,.cls-2,.cls-3,.cls-4,.cls-5{stroke-width:0px;}.cls-2{fill:#fee67b;}.cls-3{fill:#ffefaf;}.cls-4{fill:#fbdd45;}.cls-5{fill:#ed2324;}</style>
    </defs>
    <g id="Layer_1-2">
        <circle class="cls-4" cx="42.84" cy="42.84" r="42.84" />
        <path class="cls-2"
            d="m0,42.84c0,9.6,3.16,18.45,8.48,25.59,6.2,3.49,13.36,5.5,20.99,5.5,23.66,0,42.84-19.18,42.84-42.84,0-9.6-3.16-18.45-8.48-25.59-6.2-3.49-13.36-5.5-20.99-5.5C19.18,0,0,19.18,0,42.84Z" />
        <path class="cls-3"
            d="m5.8,47.19C5.8,24.87,23.89,6.78,46.21,6.78c13.84,0,26.05,6.96,33.34,17.57C72.76,11.38,59.15,2.51,43.45,2.51,20.98,2.51,2.75,20.68,2.75,43.09c0,9.99,3.63,19.13,9.63,26.2-4.16-6.35-6.59-13.94-6.59-22.1Z" />
        <path class="cls-1"
            d="m24.99,51.99c-.02.29-.03.57-.03.87,0,8.58,8,15.54,17.87,15.54s17.87-6.96,17.87-15.54c0-.29-.01-.58-.03-.87H24.99Z" />
        <path class="cls-5"
            d="m42.84,60.69c-4.86,0-9.29,1.17-12.7,3.1,3.24,2.85,7.73,4.61,12.7,4.61s9.46-1.76,12.7-4.61c-3.41-1.93-7.85-3.1-12.7-3.1Z" />
        <path class="cls-5"
            d="m24.13,47.18l-1.39-1.25c-2.39-2.19-4.36-4.08-5.92-5.67-1.56-1.59-2.8-3.01-3.73-4.27-.93-1.25-1.57-2.39-1.95-3.4s-.56-2.04-.56-3.08c0-2.04.68-3.74,2.05-5.1,1.37-1.36,3.05-2.05,5.06-2.05,1.29,0,2.48.3,3.57.91s2.05,1.49,2.86,2.64c.95-1.22,1.95-2.12,3.01-2.69s2.2-.86,3.42-.86c2.01,0,3.7.68,5.06,2.05,1.37,1.36,2.05,3.06,2.05,5.1,0,1.04-.19,2.07-.56,3.08s-1.02,2.15-1.95,3.4-2.17,2.67-3.73,4.27c-1.56,1.59-3.53,3.48-5.92,5.67l-1.39,1.25Z" />
        <path class="cls-5"
            d="m61.55,47.18l-1.39-1.25c-2.39-2.19-4.36-4.08-5.92-5.67-1.56-1.59-2.8-3.01-3.73-4.27-.93-1.25-1.57-2.39-1.95-3.4s-.56-2.04-.56-3.08c0-2.04.68-3.74,2.05-5.1,1.37-1.36,3.05-2.05,5.06-2.05,1.29,0,2.48.3,3.57.91s2.05,1.49,2.86,2.64c.95-1.22,1.95-2.12,3.01-2.69s2.2-.86,3.42-.86c2.01,0,3.7.68,5.06,2.05,1.37,1.36,2.05,3.06,2.05,5.1,0,1.04-.19,2.07-.56,3.08s-1.02,2.15-1.95,3.4-2.17,2.67-3.73,4.27c-1.56,1.59-3.53,3.48-5.92,5.67l-1.39,1.25Z" />
    </g>
</svg>
